X: 16222
T: Greens Of Cassel, The
R: hornpipe
M: 4/4
K: Gmajor
|:GABd gdBG|F#GABc2AG|F#Ade fdcA[1F#GAF#D4:|2 D2G2G4||
|:FAdA FAdA|GB (3def g2 ed|^ceab agfe|
[1fgef d2 BA|GABd gdBG|F#GABc2AG|F#Ade fdcA|D2G2G4:|
[2fgef d2 (3def|gdBd GABd|cBcd egfe|d2 ed cAFA|DAFA G4||

